X: 31244
T: Paddy Fahey's
R: reel
M: 4/4
K: Dmixolydian
|:A,D{G}FD CEAG|FGEF Dz {b}ag|fd~d2 fded|(3EFG AG (3EFG cG|
AGFDA,2 AG|FGEF Dz {b}ag|fd~d2 ADFA|1 GCEG FD D2:|2 GFEG FDD2||
K:D
|:(3efg a^g afdf|gfed cAA2|gBdg fAdf|gfed {cd}cA A2|
fa{b}a^g afdf|gfef g2 ag|faeg fdAF|GECE D4:|

